!!!COM: Johanna Kinkel
!!!CNT: Deutsch
!!!TXO: Deutsch
!!!OTL: An Den Mond
!!!LYR: Goethe
!!!OPR: Sechs Lieder
!!!OPS: Op. 7
!!!ONM: No. 5
!!!ENC: Ben Fuhrman
!!!YOR: Johanna Kinkel: Lieder, volume 1 Poetry by Geibel and Goethe
!!!YOR: Bryn Mawr, Fildegard Publishing CO, 2000
!!!ODT: 1837
!!NB: Only vocal melody encoded.
!!NB: First instance of melodic material only encoded.
!!created: 2/23/10 3:57PM
!!proofed and posted: 2/23/10 3:57PM
**kern	**silbe
*clef G2	*
*k[f#]	*
*M4/4	*
*MM[Andante quasi Allegretto]	*
=1	=1
{4.b	{Fu2l-
8cc	-lest
4dd	wie-
4g	-der
=2	=2
4.a#	Busch
8a#	und
2b	Thal
=3	=3
4.dd	still
8dd	mit
4cc	Ne-
4b	-bel-
=4	=4
(2..a	-glanz,
8a#)}	|}
=5	=5
{4.bn	lo2-
8cc	-sest
4dd	end-
4g	-lich
=6	=6
4a#	auch
8a#	ein
8b	|
2cc#	mal
=7	=7
4.b	mei-
8b	-ne
4.b	See-
8a	-le
=8	=8
1b}	ganz.}
=9	=9
{4.g	{Je-
8g	-den
4.g#	Nach-
8g#	-klang
=10	=10
4g#	fu2hlt
8a	mein
8b	|
2a	Herz
=11	=11
4.a	froh
8a	und
8cc#	tru2-
8ee	|
8dd	-ber
8b	|
=12	=12
(2..a	Zeit,
8a#)}	|}
=13	=13
{4b	{wand'-
4g	-le
4d	zwi-
4g	-schen
=14	=14
4b	Freund'
4dd	und
(4.ee-	Schmerz
8cc)	|
=15	=15
4b	in
4g	der
4.d	Ein-
8d	-sam-
=16	=16
1d}	-keit.}
==	==
*-	*-
